X: 327
T: Bileydi Dil
C: Itrî
O: Turkey
F: http://compmusic.upf.edu/node/140
N: acemasiran--yuruksemai--yuruksemai--bileydi_dil--itri
N: makam= acemasiran
N: form= yuruksemai
N: usul= yuruksemai = 6/8
M: 6/8
L: 1/16
K: C _B   
Q: 1/4=69
%%MIDI tuningsystem comma53
c4f8f2e2 g2b2a2g2  | g2f2f2e2 e2dfe2d2 d8  | \
w:  Bi ley di  *  dil   |  gi *  bi  *  dil *  *  *  *  ber   | 
_1/4B4c2d2 c2d2c2B2 f2e2d2c2  | 
w:  ga mÄ±  *  *  *  ci *  han   | 
e2d2c2_1/4B2 A4z4 d2^c2d4  | A4A2B2 A2G2G4 G2B2A2G2  | \
w:  ni *  ce *  dir   Yar   |  le lel *  *  *  li   | 
G2F2E2F2 E2F2G2GF F8  | 
w:  vay    | 
z4c4 c2d2c2_1/4B2 c4z4  | c2_1/4B2c2f2 e2d2d2^c2 d8  | \
w:  Ya  *  *  le *  lel   |  le *  lel *  *  *  li   | 
z4c4 c2d2c2_1/4B2 c2d2c2B2  | 
w:  Te re *  le *  lel  | 
c2_1/4B2c2f2 e2d2cBA2 B2c2B4  | z4g4 a4a2g2 a2g2f4  | \
w:  le *  lel *  *  *  li    |  Ah   | 
f4e4 f4e2d2 g^f_7/8edc4  | 
w:  *  ah   | 
z4d2_7/8e2 d2e2d2e2 g^fgag2f2  | _7/8e4d2c2 _1/4B2c2e2dc c8  | 
w:  ca  |  nÄ±m    | 
z4c4 c2d2c2_1/4B2 c8  | c4c2f2 e2d2d2^c2 d8  | \
w:  Ya  *  *  le *  lel  |  le lel *  *  *  li    | 
z4c4 c2d2c2_1/4B2 c2d2c2B2  | 
w:  Te re *  le *  lel  | 
c2_1/4B2c2f2 e2d2cBA2 B2c2B4  | z4A4 _1/4B4c4 d8  | \
w:  le *  lel *  *  *  li    |  Dost   | 
d4e8d2e2 d8  | 
w:  lel  | 
c4c2_1/4B2 e2d2c2B2 A8  | G6A2 A4A4 d2^c2d4  | \
w:  lel  |  lel *  *  *  li    | 
d4G4 A4A4 d2^c2d4  | 
w:  *  Ye le ye lel  | 
A2B2A2G2 G4G4 G2B2A2G2  | G2F2E2F2 E2F2G2GF F8  | \
w:  li *  *  *  te re li    |  vay    | 
c4f8f2e2 g2b2a2g2  | 
w:  Bi ley di *  Ã§eÅ   | 
g2f2f2e2 e2dfe2d2 d8  | _1/4B4c2d2 c2d2c2B2 f2e2e'4  | \
w:  *  *  ni  *  i  *  *  *  *  Åi  |  ve  i  *  be *  yan  | 
d2c2e2d2 c2_1/4B2A4 z4d2^c2  | 
w:  *  *  ni *  ce *  dir yar    | 
d4A2B2 A2G2G4 G2B2A2G2  | G2F2E2F2 E2F2G2GF F8  | \
w:  *  Le lel *  *  *  li   |  vay    | 
z4c4 c2d2c2_1/4B2 c4z4  | 
w:  ya  *  *  le *  lel   | 
_1/4B2c2f2e2 d2d2^c2d8z4=c4c2 d2c2B2c2 d2c2B2B2  | \
w:  le *  lel *  *  li   *  *  Te re *  le *  lel *  *  *  le  | 
c2f2e2d2 c_1/4BA2B2c2 B4z4  | 
w:  *  lel *  *  li    | 
g4a4 a2g2a2g2 f4f4  | e4f4 e2d2g^f_7/8ed c4z4  | \
w:  Ah   |  ah   | 
d2_7/8e2d2e2 d2e2g^fga g2f2e4  | 
w:  ca *  *  *  *  *  *  *  *  *  *  *  nÄ±m    | 
d2c2_1/4B2c2 _7/8e2dcc8z4  | c4c2d2 c2_1/4B2c8c4  | \
w:   |  Ya  *  *  le *  lel le  | 
c2f2e2d2 d2^c2d8=c4  | 
w:  lel *  *  *  li   *  *  Te  | 
c2d2c2_1/4B2 c2d2c2B2 c2B2c2f2  | \
w:  re *  le *  lel *  *  *  le *  lel  | 
e2d2c_1/4BA2 B2c2B4 z4A4  | 
w:  *  *  li  *  *  *  *  *  dost    | 
_1/4B4c4 d8 d4e8d2e2 d8 c4c2B2  | \
w:  *  *  *  lel *  *  *  *  lel  | 
e2d2c2_1/4B2 A8 G6A2  | A4A4 d2^c2d4 d4G4  | 
w:  *  *  *  *  *  lel  |  *  *  li   *  *  *  ye  | 
A4A4 d2^c2d4 A2B2A2G2  | G4G4 G2B2A2G2 G2F2E2F2  | \
w:  le *  lel *  *  li  |  te re li *  *  *  vay    | 
E2F2G2GF F8 d4g4  | 
w:  *  *  *  *  *  *  Åi ka  | 
g2a2g2^f2 g4f2g4a4=b2  | a2g2^f2g2 fee4e4e2f2g2  | \
w:  *  *  ye *  tin  *  sa kÄ±n  ey   |  *  na *  le  *  *  *  *  duy  | 
e2e4e2 f2e2d2d2 _7/8e^fe2d2d4c4d2 e2d2c2f2 e2d4c2  | 
w:  *  ma sÄ±n  *  *  *  dil *  *  *  *  dar  *  Yar  *  *  *  le *  lel  | 
_1/4B2c2B2B2 c2B2A2A8c2  | _1/4BAA8z4g4g2a2g2  | \
w:  *  *  *  li *  *  *  vay    |  *  *  *  Ya  *  *  le  | 
^f2g6 f2g2f2=b4a2g2f2  | 
w:  *  lel *  le *  li *  *  vay    | 
g2e8z4d4e4e4e2a2e4e2d2d4c2_1/4B2A2  | \
w:  *  *  Te re lel *  *  *  le *  li  *  *  vay    | 
c2_1/4B2A2A4A4g4a4a2  | 
w:  *  *  *  *  *  Ah  | 
g2a2g2f4f4e4f4e2  | d2g^f_7/8edc4z4d2 e2d2e2d2  | \
w:  *  *  *  *  *  ah   |  *  *  *  *  *  *  ca  | 
_7/8e2g^fgag2 f2e4d2 c2_1/4B2c2e2  | 
w:  *  *  *  *  *  *  *  nÄ±m   | 
dcc8z4c4c2d2c2  | _1/4B2c8c2B2c2 f2e2d2d2  | \
w:  *  *  *  ya *  *  le  |  *  lel  le *  lel *  *  *  li    | 
^c2d8z4=c4c2d2c2  | 
w:  *  *  Te re *  le  | 
_1/4B2c2d2c2 B2c2B2c2 f2e2d2cB  | \
w:  *  lel *  *  *  le *  lel *  *  *  li   | 
A2_1/4B2c2B4B4A4B4c4d8g4^f2 a2g4d4d8g4f2 a2g4d4d8=f4e4f4g4a4g4f4e4d4c4a6 g2f4e4d4c4a6 g2g2f2e2 f2e2f2g2  | 
w:  *  *  *  *  *  dost  *  *  *  lel *  *  *  *  *  lel *  *  *  *  *  lel *  *  le *  *  ya *  le ye lel  *  li *  te re li *  vay    | 
gff8c4f8f2  | e2g2b2a2 g2g2f2f2 e2e2dfe2  | \
w:  *  *  *  Bi ley di   |  *  dil  *  *  *  gi *  bi  *  dil  | 
d2d8_1/4B4c2 d2c2d2c2  | 
w:  *  ber  ga mÄ±  *  *  *  ci  | 
_1/4B2f2e2d2 c2e2d2c2 B2A4z4d2^c2d4A4A2 _B2A2G2G4G2B2A2 G2G2F2E2 F2E2F2G2  | 
w:  *  han  *  *  *  ni *  ce *  dir   Yar  *  *  le lel *  *  *  li  *  *  *  *  vay    | 
GFF8z4c4c2d2c2  | _1/4B2c4z4c2B2c2 f2e2d2d2  | \
w:  *  *  *  Ya  *  *  le  |  *  lel  le *  lel *  *  *  li   | 
^c2d8z4=c4c2d2c2  | 
w:  *  *  Te re *  le  | 
_1/4B2c2d2c2 B2c2B2c2 f2e2d2cB  | \
w:  *  lel *  *  *  le *  lel *  *  *  li    | 
A2_1/4B2c2B4z4g4a4a2  | 
w:  *  *  *  *  Ah   | 
g2a2g2f4f4e4f4e2  | d2g^f_7/8edc4z4d2 e2d2e2d2  | \
w:  *  *  *  *  *  ah   |  *  *  *  *  *  *  ca  | 
_7/8e2g^fgag2 f2e4d2 c2_1/4B2c2e2  | 
w:  *  *  *  *  *  *  *  nÄ±m    | 
dcc8z4c4c2d2c2  | _1/4B2c8c4c2 f2e2d2d2  | \
w:  *  *  *  Ya  *  *  le  |  *  lel le lel *  *  *  li    | 
^c2d8z4=c4c2d2c2  | 
w:  *  *  Te re *  le  | 
_1/4B2c2d2c2 B2c2B2c2 f2e2d2cB  | \
w:  *  lel *  *  *  le *  lel *  *  *  li    | 
A2_1/4B2c2B4z4A4B4c4d8d4e8d2  | 
w:  *  *  *  *  Dost  *  *  *  lel  | 
e2d8c4c2 _1/4B2e2d2c2  | _1/4B2A8G6 A2A4A4d2^c2d4d4G4A4A4d2c2d4A2_B2A2 G2G4G4G2B2A2 G2G2F2E2 F2E2F2G2  | 
w:  *  *  lel  |  *  *  lel *  *  *  li   *  *  *  Ye le ye lel *  *  li *  *  *  te re li   *  *  *  vay    | 
GFF8|
w:   | 


